material/.icons/material/syllabary-katakana-half-width.svg

<svg xmlns="http://www.w3.org/2000/svg" viewBox="0 0 24 24"><path d="M8 4v2h6l-1 4.81 2 .39 1-5.1V4m-6 5v3c0 2.86-.66 5.29-1.92 6.61L9.5 20c1.85-1.92 2.5-4.85 2.5-8V9z"/></svg>

<?xml version="1.0" encoding="UTF-8"?><!DOCTYPE svg PUBLIC "-//W3C//DTD SVG 1.1//EN" "http://www.w3.org/Graphics/SVG/1.1/DTD/svg11.dtd"><svg xmlns="http://www.w3.org/2000/svg" xmlns:xlink="http://www.w3.org/1999/xlink" version="1.1" id="mdi-syllabary-katakana-half-width" width="24" height="24" viewBox="0 0 24 24"><path d="M8 4V6H14L13 10.81L15 11.2L16 6.1V4M10 9V12C10 14.86 9.34 17.29 8.08 18.61L9.5 20C11.35 18.08 12 15.15 12 12V9Z" /></svg>
